X:583
T:
S:Upptecknad, såsom Johan Johansson Allmunde i Burs spelat den för samlaren.
R:polka
O:Gotland, Burs
M:2/4
L:1/16
K:C
c3d e2e2|d3e f2f2|B3c d2d2|c2e2 g4|c3d e2e2|d2e2 f4|a2g2 f2B2|c2c2 c2
z2::g2g2 f2f2|egc'g e2e2|dfaf d2d2|cdef g4|g2g2 f2f2|egc'g e2g2|a2g2 f2B2|c2c2
c2 z2:|

